X:1
T:西湖春晓
T:西湖春晓
T:影片《船家女》插曲
T:贺培真 词 贺绿汀 曲 
C:贺绿汀
Z:贺培真
%%score 1 [ ( 2 3 ) ( 4 5 ) ] { 6 | 7 }
L:1/8
Q:1/8=114
M:6/8
K:Ab
V:1 treble nm="女声"
V:2 treble nm="S A"
V:3 treble 
V:4 bass nm="T B"
V:5 bass 
V:6 treble nm="Piano"
V:7 bass 
V:1
"^Moderato" z6 | z6 | E3- E(FE) | (A2 B) c3 | (Bc/B/=A/B/ c_A)F | E3- E2 z | E3- E(FE) | %7
w: ||皓 * 皓 *|朝 * 阳|上 * * * * * * 柳|梢， *|淡 * 淡 *|
 (B2 c) d3 | (f2 e/f/ ecG) | (B2 A) A3 | z6 | z6 | z6 | z6 | z6 | z6 | z6 | z6 | z6 | z6 | z6 | %21
w: 青 * 烟|漫 * * * * *|山 * 腰。||||||||||||
 z6 | z6 | z6 | z6 | z6 | z6 | z6 | z6 | z6 | z6 | z6 | z6 | z6 | z6 | z6 | z6 | z6 | z6 | z6 | %40
w: |||||||||||||||||||
 z6 | z6 | z6 |] %43
w: |||
V:2
 z6 | z6 | z6 | z6 | z6 | z6 | z6 | z6 | z6 | z6 | [EA] z z [EA]2 [EG] | [EA]>[EB][Ec] E3 | %12
w: ||||||||||听 柳 浪|莺 声 报 晓，|
 [CE]>[DF][CE] [Fd]2 [Fc] | (([Ac][GB][FA])) [GB]3 | [CE]3 [Ee]2 [Fd] | [Fd]>[Fc][FB] c3 | %16
w: 美 丽 的 西 子|醒 * * 了，|看 清 波|随 风 荡 漾，|
 [B,_E][B,=D][B,E] [_DF]2 [DG] | [DB]3 [CA]3 | (C2 D) [CE]3 | (FEF) E3 | %20
w: 明 媚 的 西 子|笑 了。|画 * 舫|轻 * * 棹|
 [Ec]2 [EB] (([GB][FA]))[EG] | (F>GF) E3 | (E=DE) d3 | (E=DE) [Ec]3 | (B>cB e2) d | %25
w: 荡 进 西 * 子|怀 * * 抱，|青 * * 山|绿 * * 水|船 * * * 在|
 [Ec]2 [EB] [EA]3 | [EA]3 (A2 G) | (A>Bc) E3 | (([CE]>[DF][CE])) (d2 c) | (([Ac][GB]))[FA] [GB]3 | %30
w: 画 里 摇。|摇 摇 *|摇 * * 摇|努 * * 力 *|把 * 船 摇，|
 ((E3 [Ae]2)) [Ad] | (d>c)B c3 | (f2 e) (e2 d) | [Ec]3 [DB]3 | [CA]3- [CA]2 z | z6 | z6 | z6 | z6 | %39
w: 人 * 在|镜 * 中 喧，|船 * 在 *|画 里|摇。 *|||||
 z6 | z6 | z6 | z6 |] %43
w: ||||
V:3
 x6 | x6 | x6 | x6 | x6 | x6 | x6 | x6 | x6 | x6 | x6 | x3 E3 | x6 | x6 | x6 | x3 (=E2 C) | x6 | %17
 x6 | C3 x3 | D3 (C2 D) | x6 | (E2 =D) E3 | C3 (GFE) | C3 x3 | (G3 AG)F | x6 | x3 E3 | E3 E3 | %28
 x3 F3 | x6 | E3 x3 | F2 F =E3 | F3 (F2 A) | x6 | x6 | x6 | x6 | x6 | x6 | x6 | x6 | x6 | x6 |] %43
V:4
 z6 | z6 | z6 | z6 | z6 | z6 | z6 | z6 | z6 | z6 | [A,,C] z z [A,,C]2 [B,,B,] | %11
 [C,A,]>[B,,G,][A,,A,] [E,G,]3 | A,>A,A, [D,A,]2 [F,A,] | [E,C]3 [E,E]3 | [A,,A,]3 [A,,C]2 [A,,D] | %15
 [B,,B,]>[C,A,][D,F,] G,3 | [_E,G,][F,A,][E,G,] [E,G,]2 E, | (E,F,G,) [A,,A,]3 | %18
 [A,,A,]3 [A,,A,]3 | A,3 [A,,A,]3 | A,2 A, [E,B,]2 [E,B,] | (A,>B,A,) [E,G,]3 | A,3 B,3 | %23
 A,3 (A,B,C) | ([B,,D]3 CB,)A, | [E,A,]2 [D,G,] [C,A,]3 | [A,,C]3 (([A,,C]2 [B,,B,])) | %27
 (([C,A,]>[B,,G,][A,,A,])) [E,G,]3 | A,3 A,3 | (CD)=D [E,E]3 | [A,,C]3- C2 B, | %31
 [B,,A,]2 [D,F,] [C,G,]3 | (D2 C) (C2 B,) | [E,A,]3 [E,G,]3 | [A,,A,]3- [A,,A,]2 z | z6 | z6 | z6 | %38
 z6 | z6 | z6 | z6 | z6 |] %43
V:5
 x6 | x6 | x6 | x6 | x6 | x6 | x6 | x6 | x6 | x6 | x6 | x6 | A,>A,A, x3 | x6 | x6 | x3 (C,F,=E,) | %16
 x5 E, | A,,3 x3 | x6 | (D,C,D,) x3 | A,2 A, x3 | (F,2 B,,) x3 | A,3 (E,F,G,) | A,3 A,,3 | %24
 x3 C,2 D, | x6 | x6 | x6 | A,3 (D,2 F,) | E,2 E, x3 | x3 A,,2 A,, | x6 | A,,3 D,3 | x6 | x6 | x6 | %36
 x6 | x6 | x6 | x6 | x6 | x6 | x6 |] %43
V:6
 z6 | z6 | E3- EFE | A2 B c3 | B3 cAF | E3- E2 z | E3- EFE | B2 c d3 | f2 e/f/ ecG | B2 A A3 | %10
 [ac']/e/[ac']/e/[ac']/e/ [ac']/e/[ac']/e/[gb]/e/ | %11
 [ac']/e/[ac']/e/[ac']/e/ [gb]/e/[gb]/e/[gb]/e/ | [ea]/c/[ea]/c/[ea]/c/ [fa]/d/[fa]/d/[fa]/d/ | %13
 [ea]/c/[ea]/c/[ea]/c/ [eg]/B/[Be]/G/[GB]/E/ | [Ac]/E/[Ac]/E/[Ac]/E/ [Ac]/E/[Ac]/E/[Ac]/E/ | %15
 [Bd]/F/[Bd]/F/[Bd]/F/ [Gc]/=E/[Gc]/E/[Gc]/E/ | [GB]/E/[Be]/G/[eg]/B/ [gb]/e/[gb]/e/[gb]/e/ | %17
 [ac']/e/[ea]/c/[ce]/A/ [Ac]/E/[EA]/C/[CE]/A,/ | %18
[K:bass] z/ [E,A,C]/z/[E,A,C]/z/[E,A,C]/ z/ [E,A,C]/z/[E,A,C]/z/[E,A,C]/ | %19
 z/ [F,A,D]/z/[F,A,D]/z/[F,A,D]/ z/ [E,A,C]/z/[E,A,C]/z/[E,A,C]/ | %20
 z/ [CEA]/z/[CEA]/z/[CEA]/ z/ [B,EG]/z/[B,EG]/z/[B,EG]/ | %21
 z/ [A,CF]/z/[A,CF]/z/[A,=DF]/ z/ [G,B,E]/z/[G,B,E]/z/[G,B,E]/ | %22
 z/ [CE]/z/[CE]/z/[CE]/ z/ [B,EG]/z/[B,EG]/z/[B,EG]/ | %23
 z/ [CEA]/z/[CEA]/z/[CEA]/ z/ [EAc]/z/[EAc]/z/[EAc]/ | %24
 z/ [DGB]/z/[DGB]/z/[DGB]/ z/ [EAc]/z/[EAc]/z/[FAd]/ | %25
 z/ [EAc]/z/[EAc]/z/[DGB]/ z/ [CEA]/z/[CEA]/z/[CEA]/ | z [CE]2 z [CE]2 | z [CE]2 z [G,B,E]2 | %28
 z [CE]2 z [DF]2 | z [CE]2 z [B,E]2 | z/ [CE]/z/[CE]/z/[CE]/ z/ [CEA]/z/[CEA]/z/[CEA]/ | %31
 z/ [FBd]/z/[FAc]/z/[FB]/ z/ [=EGc]/z/[EGc]/z/[EGc]/ | z [Adf][Ace] z [Fce][FBd] | %33
 z [EAc]2 z [DGB]2 | [CE-A]3 EFE | A2 B c3 | Bc/B/=A/B/ c_AF | E3- E2 z | E3- EFE | B2 c d3 | %40
 f2 e/f/ ec!>(!G | B2 A!>)! A3 | %42
!pp![I:staff +1]({A,,,(A,,)(E,)(A,)[I:staff -1]E-)c-e-a-} [Eceac']6 |] %43
V:7
 A,,2 E, [A,C]3 | A,,2 E, [A,C]3 | A,,2 E, [A,C]3 | A,,2 E, [A,C]3 | E,,2 B,, [=D,A,]3 | %5
 E,,2 E, [G,B,]3 | A,,2 E, [A,C]3 | D,,2 D, [F,B,]3 | E,,2 E, [G,B,]3 | A,,2 E, [A,C]3 | %10
 A,,2 E, [A,C]3 | A,,2 E, [B,E]3 | A,,2 E, [A,D]3 | A,,2 E, [B,E]3 | A,,2 E, [A,C]3 | %15
 B,,2 [F,B,] C,2 [G,C] | E,,2 [B,,E,] E,,2 [B,,E,] | A,,2 E, [A,C]3 | A,,,A,,E,, A,,,A,,E,, | %19
 D,,D,A,, A,,,A,,E,, | A,,A,E, E,,E,B,, | F,,B,,B,,, E,,E,B,, | A,,A,E, E,,E,B,, | %23
 A,,A,E, A,,A,E, | B,,B,E, C,A,D, | A,,A,E, C,A,E, | A,,2 [E,A,] A,,2 [E,A,] | %27
 A,,2 [E,A,] E,,2 [B,,E,] | A,,2 [E,A,] D,,2 [D,A,] | E,,2 [E,A,] E,,2 [E,G,] | A,,A,E, A,,A,E, | %31
 B,,B,F, C,CG, | A,,A,E, D,A,F, | A,C,F, E,2 E,, | A,,2 E, [A,C]3 | A,,2 E, [A,C]3 | %36
 E,,2 B,, [=D,A,]3 | E,,2 E, [G,B,]3 | A,,2 E, [A,C]3 | D,,2 D, [F,B,]3 | E,,2 E, [G,B,]3 | %41
 A,,2 E, [A,C]3 | [A,,,A,,E,A,]6 |] %43

